X: 12
T: Over The Moor To Maggie
Z: tziguk
S: https://thesession.org/tunes/115#setting53444
R: reel
M: 4/4
L: 1/8
K: Gmaj
|:G2GA BABd|efge dBAG|EAAG ABAG|EAAG AcBA|
G2GA (3BAG Bd|efge dBAG|EG (3GGG BGAG|1EGFA GABA:|2EGFA G2 ga||
|:bg (3ggg agef|g2ge d2 Bd|eaag abag|eaag a2 ga|
bg (3ggg agef|g2ge d2 Bd|eg (3ggg bgag|1egfag2 ga:|2egfag2 (3Bcd||
|:e3c d3B|c3A B2AG|EAAG ABAG|EAAG ABcd|
e3c d3B|c3A B2AG|EG (3GGG BGAG|1EGFA GABd:|2EGFA GABA||

